src/assets/images/contacts-icon-4.svg

<svg width="30" height="30" viewBox="0 0 30 30" fill="none" xmlns="http://www.w3.org/2000/svg">
<path d="M15 0C6.7125 0 0 6.7125 0 15C0 21.6375 4.29375 27.2438 10.2562 29.2313C11.0062 29.3625 11.2875 28.9125 11.2875 28.5188C11.2875 28.1625 11.2688 26.9813 11.2688 25.725C7.5 26.4188 6.525 24.8062 6.225 23.9625C6.05625 23.5312 5.325 22.2 4.6875 21.8437C4.1625 21.5625 3.4125 20.8687 4.66875 20.85C5.85 20.8312 6.69375 21.9375 6.975 22.3875C8.325 24.6562 10.4813 24.0188 11.3438 23.625C11.475 22.65 11.8687 21.9937 12.3 21.6187C8.9625 21.2437 5.475 19.95 5.475 14.2125C5.475 12.5812 6.05625 11.2312 7.0125 10.1812C6.8625 9.80625 6.3375 8.26875 7.1625 6.20625C7.1625 6.20625 8.41875 5.8125 11.2875 7.74375C12.4875 7.40625 13.7625 7.2375 15.0375 7.2375C16.3125 7.2375 17.5875 7.40625 18.7875 7.74375C21.6563 5.79375 22.9125 6.20625 22.9125 6.20625C23.7375 8.26875 23.2125 9.80625 23.0625 10.1812C24.0188 11.2312 24.6 12.5625 24.6 14.2125C24.6 19.9687 21.0938 21.2437 17.7563 21.6187C18.3 22.0875 18.7688 22.9875 18.7688 24.3938C18.7688 26.4 18.75 28.0125 18.75 28.5188C18.75 28.9125 19.0313 29.3813 19.7813 29.2313C22.7592 28.2262 25.3469 26.3125 27.18 23.7595C29.0132 21.2066 29.9995 18.1429 30 15C30 6.7125 23.2875 0 15 0Z" fill="white"/>
</svg>

<svg xmlns="http://www.w3.org/2000/svg" width="30" height="30" fill="none"><path d="M15 0A15 15 0 0 0 0 15c0 6.637 4.294 12.244 10.256 14.231.75.131 1.031-.319 1.031-.713l-.019-2.794c-3.769.694-4.744-.919-5.044-1.763-.169-.431-.9-1.762-1.537-2.119-.525-.281-1.275-.975-.019-.994 1.181-.019 2.025 1.087 2.306 1.537 1.35 2.269 3.506 1.631 4.369 1.238.131-.975.525-1.631.956-2.006-3.338-.375-6.825-1.669-6.825-7.406 0-1.631.581-2.981 1.538-4.031-.15-.375-.675-1.912.15-3.975 0 0 1.256-.394 4.125 1.538a13.92 13.92 0 0 1 3.75-.506 13.92 13.92 0 0 1 3.75.506c2.869-1.95 4.125-1.538 4.125-1.538.825 2.063.3 3.6.15 3.975.956 1.05 1.538 2.381 1.538 4.031 0 5.756-3.506 7.031-6.844 7.406.544.469 1.012 1.369 1.012 2.775l-.019 4.125c0 .394.281.863 1.031.713 2.978-1.005 5.566-2.919 7.399-5.472A15.02 15.02 0 0 0 30 15 15 15 0 0 0 15 0z" fill="#fff"/></svg>
